X:1
T:Jamie Judge
M:4/4
L:1/8
K:Eb
 C2| F2 BFA-F E2| A4 B2A-B| c3 FB-A F2| E4 z2|C-E| F3 B F2 E2| A4 B2A-B|\
 c3 FB-A F2| F4 z2| c3/2 d/2| e2 c2f-ec-B| B3- F A3 B| c3 FB-A F2|\
 E4 z2|C-E| F2 B2 F2 E2| A4 B2A-B| c3 FB-A F2| F4 z2||
